X:56
T:Lola's Reel
R:reel
C:Paul S. Cranford
O:Cape Breton Island
S:http://www.cranfordpub.com
D:currently unrecorded
B:currently unpublished in book form
Z:psc
H:                                                        copyrights Cranford Publications, SOCAN
L:1/8
Q:333
M:C|
K:F
c2 AF Acfc|dfcA GABd|c2 AF Acfc|dfcA G2 FA|
c2 AF Acfc|dfcA GABd|c2 AF Acfc|dfca g2 f||
||g|a2 fd cfAc|BGAF GABg|a2 fd cfAc|BGAa g2 fg|
a2 fd cfAc|BGAF GABG|Ffef dfcA|BdcA G2 FA|]
